!!!OTL: Jiangxi chulege Fang Zhimin
!!!ARE: Asia, China,ÿJiangxi Yiyang
!! IV, 223
!!!SCT: C1860
!!!YEM: Copyright 1995, estate of Helmut Schaffrath.
**kern
*ICvox
*Ivox
*M2/4
*k[b-]
*F:
{16dd
16ff
16dd
16cc
4a
=1
16dd
16ff
16dd
16cc
4a
=2
8a
4cc
8dd
=3
8f
16f
16g
4a}
=4
{8a
16a
16cc
8dd
8dd
=5
16cc
16dd
16cc
16a
4g
=6
8f
16f
16a
8g
8f
=7
8d
16d
16c
4d}
=8
{8f
16d
16f
4g
=9
8f
16f
16a
8g
8f
=10
8d
16d
16c
4d}
==
!!!AGN: Xiaodiao
!!!AMT: simple duple
!!!AIN: vox
!!!EED: Helmut Schaffrath
!!!EEV: 1.0
*-
